public/ic_users.svg

<svg width="60" height="28" viewBox="0 0 60 28" fill="none" xmlns="http://www.w3.org/2000/svg">
<circle cx="14" cy="14" r="13" fill="#ECF1FA" stroke="#F7F8F8" stroke-width="2"/>
<path fill-rule="evenodd" clip-rule="evenodd" d="M5.53355 22.5041C6.07154 21.5342 6.98383 20.7932 8.12 20.5L11.06 19.78L11.36 18.64C10.64 17.92 10.1 16.84 9.98 15.82C9.5 15.76 9.14 15.4 9.08 14.92L8.9 13.42C8.84 13.12 8.96 12.82 9.14 12.58C9.26 12.46 9.38 12.34 9.56 12.28C9.53766 12.1907 9.51116 12.0888 9.48283 11.98C9.35896 11.5039 9.2 10.893 9.2 10.6C9.2 8.62 10.46 7.66 13.04 7.6C13.94 7 15.02 7 15.68 7H15.92C17.18 7 18.2 7.48 18.68 8.32C19.34 9.28 18.92 9.88 18.44 10.42L18.14 10.72V12.46C18.26 12.52 18.38 12.58 18.5 12.7C18.68 12.94 18.8 13.3 18.74 13.66L18.44 15.16C18.38 15.64 18.08 15.7 17.84 15.7C17.72 16.96 17.24 18.04 16.52 18.76L16.76 19.84L19.7 20.56C20.8243 20.8139 21.7952 21.594 22.3873 22.5821C20.2239 24.6967 17.2642 26 14 26C10.6959 26 7.70362 24.6646 5.53355 22.5041Z" fill="#000091"/>
<circle cx="30" cy="14" r="13" fill="#ECF1FA" stroke="#F7F8F8" stroke-width="2"/>
<path fill-rule="evenodd" clip-rule="evenodd" d="M21.5336 22.5041C22.0715 21.5342 22.9838 20.7932 24.12 20.5L27.06 19.78L27.36 18.64C26.64 17.92 26.1 16.84 25.98 15.82C25.5 15.76 25.14 15.4 25.08 14.92L24.9 13.42C24.84 13.12 24.96 12.82 25.14 12.58C25.26 12.46 25.38 12.34 25.56 12.28C25.5377 12.1907 25.5112 12.0888 25.4828 11.98C25.359 11.5039 25.2 10.893 25.2 10.6C25.2 8.62 26.46 7.66 29.04 7.6C29.94 7 31.02 7 31.68 7H31.92C33.18 7 34.2 7.48 34.68 8.32C35.34 9.28 34.92 9.88 34.44 10.42L34.14 10.72V12.46C34.26 12.52 34.38 12.58 34.5 12.7C34.68 12.94 34.8 13.3 34.74 13.66L34.44 15.16C34.38 15.64 34.08 15.7 33.84 15.7C33.72 16.96 33.24 18.04 32.52 18.76L32.76 19.84L35.7 20.56C36.8243 20.8139 37.7952 21.594 38.3873 22.5821C36.2239 24.6967 33.2642 26 30 26C26.6959 26 23.7036 24.6646 21.5336 22.5041Z" fill="#000091"/>
<circle cx="46" cy="14" r="13" fill="#ECF1FA" stroke="#F7F8F8" stroke-width="2"/>
<path fill-rule="evenodd" clip-rule="evenodd" d="M37.6093 22.5788C38.155 21.6867 39.0355 21.0166 40.12 20.7356L43.06 20.0127L43.24 19.2898C41.5703 18.9939 40.6241 18.577 40.3027 18.4354C40.2315 18.404 40.1909 18.3861 40.18 18.3861C40.06 18.3259 40 18.2054 40 18.1451C40 18.0849 40.06 17.9644 40.12 17.9041C40.12 17.9041 41.8 16.639 41.8 12.7232C41.8 8.44585 44.56 7 45.88 7C46.9 7 47.32 7.24098 47.92 7.72293H48.16C49.12 7.72293 50.26 8.62658 50.26 12.7232C50.26 16.639 51.94 17.9041 51.94 17.9041C52 17.9644 52.06 18.0246 52.06 18.1451C52.06 18.2656 52 18.3259 51.88 18.3861C51.82 18.4463 50.8 18.9885 48.76 19.2898L48.82 20.0127L51.7 20.7356C52.8252 21.0181 53.765 21.7143 54.3502 22.6183C52.1901 24.7116 49.2455 26 46 26C42.7341 26 39.773 24.6954 37.6093 22.5788Z" fill="#000091"/>
</svg>

<svg xmlns="http://www.w3.org/2000/svg" width="60" height="28" fill="none"><circle cx="14" cy="14" r="13" fill="#ECF1FA" stroke="#F7F8F8" stroke-width="2"/><path fill="#000091" fill-rule="evenodd" d="M5.534 22.504A4.13 4.13 0 0 1 8.12 20.5l2.94-.72.3-1.14c-.72-.72-1.26-1.8-1.38-2.82a1.02 1.02 0 0 1-.9-.9l-.18-1.5c-.06-.3.06-.6.24-.84.12-.12.24-.24.42-.3l-.077-.3c-.124-.476-.283-1.087-.283-1.38 0-1.98 1.26-2.94 3.84-3 .9-.6 1.98-.6 2.64-.6h.24c1.26 0 2.28.48 2.76 1.32.66.96.24 1.56-.24 2.1l-.3.3v1.74c.12.06.24.12.36.24.18.24.3.6.24.96l-.3 1.5c-.06.48-.36.54-.6.54-.12 1.26-.6 2.34-1.32 3.06l.24 1.08 2.94.72c1.124.254 2.095 1.034 2.687 2.022A11.96 11.96 0 0 1 14 26a11.96 11.96 0 0 1-8.466-3.496" clip-rule="evenodd"/><circle cx="30" cy="14" r="13" fill="#ECF1FA" stroke="#F7F8F8" stroke-width="2"/><path fill="#000091" fill-rule="evenodd" d="M21.534 22.504A4.13 4.13 0 0 1 24.12 20.5l2.94-.72.3-1.14c-.72-.72-1.26-1.8-1.38-2.82a1.02 1.02 0 0 1-.9-.9l-.18-1.5c-.06-.3.06-.6.24-.84.12-.12.24-.24.42-.3l-.077-.3c-.124-.476-.283-1.087-.283-1.38 0-1.98 1.26-2.94 3.84-3 .9-.6 1.98-.6 2.64-.6h.24c1.26 0 2.28.48 2.76 1.32.66.96.24 1.56-.24 2.1l-.3.3v1.74c.12.06.24.12.36.24.18.24.3.6.24.96l-.3 1.5c-.06.48-.36.54-.6.54-.12 1.26-.6 2.34-1.32 3.06l.24 1.08 2.94.72c1.124.254 2.095 1.034 2.687 2.022A11.96 11.96 0 0 1 30 26a11.96 11.96 0 0 1-8.466-3.496" clip-rule="evenodd"/><circle cx="46" cy="14" r="13" fill="#ECF1FA" stroke="#F7F8F8" stroke-width="2"/><path fill="#000091" fill-rule="evenodd" d="M37.61 22.579a4.14 4.14 0 0 1 2.51-1.843l2.94-.723.18-.723c-1.67-.296-2.616-.713-2.937-.855a1 1 0 0 0-.123-.049c-.12-.06-.18-.18-.18-.24 0-.061.06-.182.12-.242 0 0 1.68-1.265 1.68-5.18C41.8 8.445 44.56 7 45.88 7c1.02 0 1.44.241 2.04.723h.24c.96 0 2.1.904 2.1 5 0 3.916 1.68 5.181 1.68 5.181.06.06.12.12.12.241 0 .12-.06.18-.18.241-.06.06-1.08.602-3.12.904l.06.723 2.88.723a4.45 4.45 0 0 1 2.65 1.882A11.96 11.96 0 0 1 46 26a11.96 11.96 0 0 1-8.39-3.421" clip-rule="evenodd"/></svg>
